X:2208
T:Minard Castle
P:The Grinder's Hornpipe
C:J. Connachan
R:Reel (8x40)
B:RSCDS 22-8
Z:Anselm Lingnau <anselm@strathspey.org>
M:C
L:1/8
K:C
|:(3GAB|"C"c2GF ECEG|"F"AFAc "G"BGBd|"C"cGce fedc|"D"Bdba "G"gfed|
        "C"c2GF ECEG|"F"AFAc "G"BGBd|"C"cagf "G"edcB|"C"c2e2c2:|
|:(3GAB|"C"c2Gc edcB|"F"AFAc "Dm"fedc|"G"BGBd "G7"gfed|"C"cdcA "G"G2AB|
        "C"c2Gc edcB|"F"AFAc "Dm"fedc|"G"BGBd "G7"gfed|"C"c2e2c2:|
GF|"C"E2EG "Dm"F2FA|"C"G2e2c3G|"Dm"F2d2 "G"B3F|"C"Eedc "G7"BAGF|
   "C"E2EG "Dm"F2FA|"C"G2e2c2BA|"C"Gedc "G7"BGAB|"C"c2e2c2|]
